T: Ships In Full Sail
M: 6/8
L: 1/8
K: Gmaj
~G3{c}BAB|dBG {A}GBd|~e3dBG|~A3{c}BGE|
D3{c}BAB|dBG {A}GBd|~e3dBA|{B}AGF~G2D:|
dg{a}g bg{a}g|aga ~b3|dg{a}g bg{a}g|~a3 age|
d{a}g{f}g b{a}g{f}g|aga bge|~g3 dBG|AGA ~B3|
|:ded {e}dBG|~e3 efg|dBG dBG|~A3AGE|
d3dBG |~e3ecA|ded AGA|BGF ~G2 D:|
